icons/cloud-offline-24.svg

<svg width="24" height="24" viewBox="0 0 24 24" fill="none" xmlns="http://www.w3.org/2000/svg">
<rect width="24" height="24" fill="white"/>
<path fill-rule="evenodd" clip-rule="evenodd" d="M10.8362 4C7.38106 4 4.60345 6.74704 4.60345 10.1071C4.60345 10.367 4.62972 10.6741 4.66377 10.8825C4.72658 11.2669 4.48466 11.6354 4.10698 11.7307C2.5859 12.1142 1.5 13.4427 1.5 15.0595C1.5 16.9765 3.03164 18.5 5.01724 18.5H6C6.41421 18.5 6.75 18.8358 6.75 19.25C6.75 19.6642 6.41421 20 6 20H5.01735C2.22911 20 0 17.8305 0 15.0595C0 12.9636 1.2782 11.205 3.11482 10.4778C3.1075 10.3524 3.10345 10.2267 3.10345 10.1071C3.10345 5.86349 6.5483 2.5 10.8362 2.5C14.036 2.5 16.7685 4.37142 17.9489 7.09078C21.3492 7.346 24 10.096 24 13.5357C24 16.8979 21.4067 19.6799 18.0832 19.9966C17.6709 20.0359 17.3048 19.7335 17.2655 19.3211C17.2262 18.9088 17.5286 18.5427 17.9409 18.5034C20.5109 18.2585 22.5 16.1083 22.5 13.5357C22.5 10.7772 20.2736 8.57143 17.431 8.57143C17.1134 8.57143 16.8302 8.37134 16.7241 8.07195C15.8823 5.69638 13.5884 4 10.8362 4Z" fill="#24292F"/>
<path fill-rule="evenodd" clip-rule="evenodd" d="M9.21967 16.2197C9.51256 15.9268 9.98744 15.9268 10.2803 16.2197L12 17.9393L13.7197 16.2197C14.0126 15.9268 14.4874 15.9268 14.7803 16.2197C15.0732 16.5126 15.0732 16.9874 14.7803 17.2803L13.0607 19L14.7803 20.7197C15.0732 21.0126 15.0732 21.4874 14.7803 21.7803C14.4874 22.0732 14.0126 22.0732 13.7197 21.7803L12 20.0607L10.2803 21.7803C9.98744 22.0732 9.51256 22.0732 9.21967 21.7803C8.92678 21.4874 8.92678 21.0126 9.21967 20.7197L10.9393 19L9.21967 17.2803C8.92678 16.9874 8.92678 16.5126 9.21967 16.2197Z" fill="#24292F"/>
</svg>

<svg xmlns="http://www.w3.org/2000/svg" width="24" height="24" viewBox="0 0 24 24"><path d="M0 0h24v24H0z"/><path fill-rule="evenodd" d="M10.836 4c-3.455 0-6.233 2.747-6.233 6.107 0 .26.027.567.06.776a.75.75 0 01-.556.848C2.586 12.114 1.5 13.443 1.5 15.06c0 1.917 1.532 3.44 3.517 3.44H6A.75.75 0 016 20h-.983C2.23 20 0 17.83 0 15.06a4.9 4.9 0 013.115-4.582 6.423 6.423 0 01-.012-.37c0-4.245 3.445-7.608 7.733-7.608 3.2 0 5.932 1.871 7.113 4.59 3.4.256 6.051 3.006 6.051 6.446 0 3.362-2.593 6.144-5.917 6.46a.75.75 0 01-.142-1.493c2.57-.244 4.559-2.395 4.559-4.967 0-2.759-2.226-4.965-5.069-4.965a.75.75 0 01-.707-.5C15.882 5.697 13.588 4 10.836 4z"/><path fill-rule="evenodd" d="M9.22 16.22a.75.75 0 011.06 0L12 17.94l1.72-1.72a.75.75 0 111.06 1.06L13.06 19l1.72 1.72a.75.75 0 11-1.06 1.06L12 20.06l-1.72 1.72a.75.75 0 11-1.06-1.06L10.94 19l-1.72-1.72a.75.75 0 010-1.06z"/></svg>
